src/assets/images/driver/congrats.svg

<svg width="39" height="62" viewBox="0 0 39 62" fill="none" xmlns="http://www.w3.org/2000/svg">
<g clip-path="url(#clip0_30_86)">
<path d="M19.0216 32.6743C22.1109 32.6743 24.6152 30.2202 24.6152 27.1929C24.6152 24.1655 22.1109 21.7114 19.0216 21.7114C15.9323 21.7114 13.428 24.1655 13.428 27.1929C13.428 30.2202 15.9323 32.6743 19.0216 32.6743Z" fill="#34E9A4"/>
<path d="M5.41726 40.5308C5.29875 40.4751 5.19771 40.3893 5.12474 40.2821C5.05176 40.175 5.00955 40.0507 5.00252 39.9221L4.92115 38.4126C4.91111 38.2227 4.97834 38.0367 5.10807 37.8954C5.2378 37.7541 5.41945 37.669 5.61314 37.6588L18.4522 36.9941C18.6459 36.9843 18.8357 37.0502 18.9799 37.1773C19.1241 37.3044 19.2109 37.4824 19.2214 37.6722L19.3028 39.1818C19.3128 39.3716 19.2456 39.5576 19.1158 39.6989C18.9861 39.8402 18.8045 39.9253 18.6108 39.9355L5.77173 40.6002C5.64949 40.6067 5.52757 40.5828 5.41726 40.5308Z" fill="#34E9A4"/>
<path d="M14.268 40.5604C14.143 40.5012 14.0378 40.4085 13.9645 40.2931C13.8911 40.1777 13.8527 40.0442 13.8536 39.9083L13.8384 37.0661C13.8391 36.9719 13.8587 36.8788 13.8962 36.792C13.9336 36.7053 13.9882 36.6266 14.0567 36.5605C14.1252 36.4944 14.2063 36.4422 14.2955 36.4069C14.3846 36.3715 14.4799 36.3537 14.576 36.3545L20.4332 36.8605C20.5883 36.8614 20.784 37.0968 20.9413 37.2858C20.9907 37.3451 21.0333 37.3963 21.0645 37.4273C21.0781 37.4409 21.0911 37.455 21.1035 37.4695C21.2154 37.6001 21.276 37.7656 21.2744 37.9361L21.2616 39.4476C21.2598 39.6377 21.1811 39.8193 21.0428 39.9526C20.9045 40.0859 20.7179 40.16 20.5239 40.1586L14.5837 40.631C14.4744 40.6307 14.3666 40.6066 14.268 40.5604Z" fill="#2F2E41"/>
<path d="M17.9312 62H16.3886C16.1946 61.9998 16.0087 61.9242 15.8715 61.7898C15.7343 61.6554 15.6572 61.4731 15.657 61.283V48.4791C15.6572 48.2891 15.7344 48.1068 15.8715 47.9724C16.0087 47.838 16.1946 47.7624 16.3886 47.7622H17.9312C18.1252 47.7624 18.3111 47.838 18.4483 47.9724C18.5854 48.1068 18.6626 48.2891 18.6628 48.4791V61.283C18.6626 61.4731 18.5854 61.6554 18.4483 61.7898C18.3111 61.9242 18.1252 61.9998 17.9312 62Z" fill="#34E9A4"/>
<path d="M22.0003 62H20.4577C20.2637 61.9998 20.0777 61.9242 19.9406 61.7898C19.8034 61.6554 19.7263 61.4731 19.7261 61.283V48.4791C19.7263 48.2891 19.8034 48.1068 19.9406 47.9724C20.0778 47.838 20.2637 47.7624 20.4577 47.7622H22.0003C22.1942 47.7624 22.3802 47.838 22.5174 47.9724C22.6545 48.1068 22.7317 48.2891 22.7319 48.4791V61.283C22.7317 61.4731 22.6545 61.6554 22.5174 61.7898C22.3802 61.9242 22.1942 61.9998 22.0003 62Z" fill="#34E9A4"/>
<path d="M19.7663 29.2244L19.7721 29.0195C19.3833 29.0089 19.0404 28.985 18.7828 28.8006C18.7098 28.7453 18.6497 28.6753 18.6068 28.5953C18.5638 28.5153 18.539 28.4271 18.5339 28.3368C18.5294 28.2816 18.5379 28.2262 18.5588 28.1748C18.5797 28.1234 18.6124 28.0774 18.6544 28.0404C18.8254 27.8988 19.1006 27.9446 19.3012 28.0348L19.4741 28.1125L19.1424 25.7373L18.9354 25.7651L19.2175 27.7855C19.102 27.7435 18.9776 27.7305 18.8557 27.7477C18.7338 27.7649 18.6182 27.8117 18.5195 27.8839C18.4531 27.9407 18.401 28.0118 18.3672 28.0916C18.3335 28.1715 18.3191 28.2578 18.325 28.344C18.3311 28.4653 18.3642 28.5839 18.422 28.6913C18.4798 28.7988 18.5609 28.8925 18.6595 28.966C18.9905 29.2031 19.4207 29.2149 19.7663 29.2244Z" fill="#2F2E41"/>
<path d="M17.9112 25.9395H16.7854V26.1443H17.9112V25.9395Z" fill="#2F2E41"/>
<path d="M21.4647 25.9395H20.3389V26.1443H21.4647V25.9395Z" fill="#2F2E41"/>
<path d="M25.3944 45.4476L20.2315 35.3586H20.3043C20.4844 35.3584 20.6571 35.2882 20.7844 35.1634C20.9118 35.0386 20.9834 34.8693 20.9836 34.6928V34.488C20.9834 34.3115 20.9118 34.1423 20.7844 34.0175C20.6571 33.8927 20.4844 33.8225 20.3043 33.8223H18.0049C17.8248 33.8225 17.6521 33.8927 17.5248 34.0175C17.3974 34.1423 17.3258 34.3115 17.3256 34.488V34.6928C17.3261 34.8557 17.3876 35.0126 17.4985 35.1339C17.6093 35.2552 17.7617 35.3324 17.9268 35.3508L12.7491 45.4531C12.5028 45.9335 12.3861 46.4677 12.41 47.0048C12.434 47.542 12.5977 48.0641 12.8857 48.5217C13.1737 48.9793 13.5764 49.3571 14.0555 49.6191C14.5346 49.8811 15.0741 50.0187 15.6227 50.0187H22.5152C23.0646 50.0187 23.6048 49.881 24.0845 49.6187C24.5643 49.3564 24.9676 48.9783 25.2561 48.5202C25.5446 48.0621 25.7088 47.5393 25.733 47.0015C25.7572 46.4637 25.6406 45.9288 25.3944 45.4476Z" fill="#2F2E41"/>
<path d="M19.2632 37.6422L30.9091 32.3041C31.0849 32.2237 31.286 32.215 31.4684 32.2798C31.6507 32.3446 31.7994 32.4776 31.8818 32.6497L32.5353 34.019C32.6173 34.1912 32.6262 34.3884 32.5601 34.567C32.494 34.7457 32.3582 34.8914 32.1826 34.9722L20.5367 40.3102C20.3609 40.3906 20.1597 40.3993 19.9774 40.3345C19.795 40.2697 19.6464 40.1367 19.564 39.9646L18.9105 38.5953C18.8695 38.5101 18.8463 38.4178 18.842 38.3237C18.8378 38.2296 18.8526 38.1357 18.8857 38.0473C18.9115 37.9771 18.9483 37.9114 18.9947 37.8523C19.0657 37.7623 19.1578 37.6902 19.2632 37.6422Z" fill="#34E9A4"/>
<path d="M18.864 37.609L23.9913 34.6141C24.166 34.5319 24.3669 34.521 24.5499 34.5837C24.7329 34.6465 24.883 34.7778 24.9674 34.9488L26.2604 37.4945C26.3022 37.5796 26.3264 37.672 26.3316 37.7664C26.3369 37.8607 26.323 37.9551 26.2909 38.0442C26.2587 38.1333 26.2089 38.2153 26.1443 38.2854C26.0796 38.3555 26.0015 38.4125 25.9144 38.4529L20.4372 40.5262C20.2938 40.5939 20.0122 40.4673 19.7859 40.3656C19.715 40.3337 19.6537 40.3062 19.6118 40.2919C19.5934 40.2855 19.5754 40.2785 19.5578 40.2709C19.3986 40.202 19.2698 40.0797 19.1945 39.9259L18.5259 38.5637C18.467 38.4436 18.4434 38.3098 18.4576 38.1773C18.4719 38.0448 18.5234 37.9188 18.6064 37.8133C18.6748 37.7264 18.763 37.6564 18.864 37.609Z" fill="#2F2E41"/>
<path d="M14.6036 24.3418C14.5288 24.3416 14.4571 24.3123 14.4042 24.2604C14.3513 24.2086 14.3215 24.1383 14.3213 24.065C14.321 24.0432 14.3235 24.0214 14.3288 24.0003L15.7908 17.6896C15.8019 17.642 15.8255 17.5982 15.8593 17.5624C15.893 17.5266 15.9358 17.5002 15.9833 17.4857C16.0308 17.4712 16.0814 17.4692 16.1299 17.4799C16.1785 17.4906 16.2233 17.5136 16.2599 17.5465L21.107 21.945C21.1434 21.9781 21.1704 22.0201 21.1851 22.0666C21.1998 22.1132 21.2018 22.1627 21.1909 22.2102C21.18 22.2577 21.1566 22.3016 21.1229 22.3375C21.0893 22.3734 21.0466 22.4 20.9992 22.4146L14.6886 24.3293C14.6611 24.3376 14.6324 24.3418 14.6036 24.3418Z" fill="#3F3D56"/>
<path d="M18.5681 19.7287L15.5234 19.1349L15.5713 18.9277L18.263 19.4521L18.5681 19.7287Z" fill="white"/>
<path d="M20.9655 21.9049L15.1443 20.7698L15.1922 20.5615L20.6603 21.6272L20.9655 21.9049Z" fill="white"/>
<path d="M18.883 22.9898L18.446 23.1221L14.7661 22.4045L14.814 22.1963L18.883 22.9898Z" fill="white"/>
<path d="M33.0765 24.4384C33.5839 24.4384 33.9953 24.0353 33.9953 23.5381C33.9953 23.0408 33.5839 22.6377 33.0765 22.6377C32.5691 22.6377 32.1577 23.0408 32.1577 23.5381C32.1577 24.0353 32.5691 24.4384 33.0765 24.4384Z" fill="#34E9A4"/>
<path d="M21.2635 1.28624C21.6259 1.28624 21.9197 0.998302 21.9197 0.643118C21.9197 0.287934 21.6259 0 21.2635 0C20.901 0 20.6072 0.287934 20.6072 0.643118C20.6072 0.998302 20.901 1.28624 21.2635 1.28624Z" fill="#FF6584"/>
<path d="M6.95657 21.2228C7.31903 21.2228 7.61286 20.9348 7.61286 20.5796C7.61286 20.2245 7.31903 19.9365 6.95657 19.9365C6.59412 19.9365 6.30029 20.2245 6.30029 20.5796C6.30029 20.9348 6.59412 21.2228 6.95657 21.2228Z" fill="#FF6584"/>
<path d="M29.9265 19.0362C30.289 19.0362 30.5828 18.7483 30.5828 18.3931C30.5828 18.0379 30.289 17.75 29.9265 17.75C29.5641 17.75 29.2703 18.0379 29.2703 18.3931C29.2703 18.7483 29.5641 19.0362 29.9265 19.0362Z" fill="#34E9A4"/>
<path d="M9.97537 27.7828C10.3378 27.7828 10.6317 27.4949 10.6317 27.1397C10.6317 26.7845 10.3378 26.4966 9.97537 26.4966C9.61292 26.4966 9.31909 26.7845 9.31909 27.1397C9.31909 27.4949 9.61292 27.7828 9.97537 27.7828Z" fill="#34E9A4"/>
<path d="M30.7139 29.5836C31.0764 29.5836 31.3702 29.2957 31.3702 28.9405C31.3702 28.5853 31.0764 28.2974 30.7139 28.2974C30.3514 28.2974 30.0576 28.5853 30.0576 28.9405C30.0576 29.2957 30.3514 29.5836 30.7139 29.5836Z" fill="#E6E6E6"/>
<path d="M24.9388 6.68858C25.3012 6.68858 25.595 6.40065 25.595 6.04546C25.595 5.69028 25.3012 5.40234 24.9388 5.40234C24.5763 5.40234 24.2825 5.69028 24.2825 6.04546C24.2825 6.40065 24.5763 6.68858 24.9388 6.68858Z" fill="#CCCCCC"/>
<path d="M0.133455 13.7599C0.820649 13.8023 1.4878 14.0037 2.08022 14.3476C2.67265 14.6915 3.17348 15.168 3.54166 15.7382C3.64484 15.8999 3.77953 16.0775 3.70811 16.2764C3.68322 16.3527 3.63267 16.4185 3.5647 16.463C3.49674 16.5075 3.41538 16.528 3.33394 16.5213C3.2324 16.4999 3.14087 16.4463 3.07347 16.3689C3.00607 16.2915 2.96654 16.1944 2.96099 16.0928C2.95543 15.9911 2.98415 15.8905 3.04272 15.8065C3.10129 15.7224 3.18646 15.6596 3.28508 15.6276C3.76169 15.4284 4.24255 15.7363 4.63078 15.982C5.5154 16.5419 6.48839 17.0483 7.56029 17.1121C8.55205 17.1711 9.61556 16.7901 10.1672 15.9473C10.2637 15.7998 10.0241 15.6636 9.92805 15.8103C9.38097 16.6461 8.27499 16.9463 7.31337 16.8171C6.74031 16.7285 6.18696 16.5444 5.6773 16.2728C5.41298 16.1384 5.15664 15.9894 4.90547 15.8328C4.66647 15.6693 4.41314 15.527 4.14846 15.4075C3.70704 15.2298 3.12268 15.2437 2.81434 15.6528C2.52669 16.0345 2.74899 16.6699 3.23012 16.7772C3.33566 16.7976 3.44472 16.792 3.54751 16.7609C3.6503 16.7298 3.74362 16.6742 3.8191 16.5991C3.89457 16.524 3.94985 16.4317 3.97997 16.3305C4.01009 16.2293 4.01411 16.1224 3.99168 16.0193C3.94367 15.7945 3.77097 15.5746 3.63729 15.3909C3.23563 14.8372 2.71232 14.3788 2.10593 14.0496C1.49953 13.7203 0.825482 13.5286 0.133439 13.4885C-0.0447118 13.4798 -0.0442311 13.7513 0.133455 13.7599Z" fill="#CCCCCC"/>
<path d="M38.9474 21.9751C38.4869 21.6846 38.1033 21.2913 37.8279 20.8274C37.5525 20.3636 37.3931 19.8424 37.363 19.3065C37.3553 19.1551 37.332 18.9806 37.4603 18.8695C37.5077 18.826 37.5689 18.7995 37.6337 18.7944C37.6985 18.7894 37.7631 18.806 37.817 18.8416C37.8791 18.895 37.9214 18.967 37.9376 19.0464C37.9538 19.1258 37.9429 19.2082 37.9065 19.2808C37.8702 19.3535 37.8104 19.4125 37.7365 19.4486C37.6626 19.4848 37.5786 19.4961 37.4974 19.4808C37.0876 19.4381 36.8755 19.0416 36.703 18.7235C36.3102 17.9986 35.8347 17.2774 35.1155 16.8259C34.4501 16.4082 33.5608 16.2688 32.8443 16.6446C32.7189 16.7104 32.8314 16.896 32.9562 16.8306C33.6667 16.4579 34.5536 16.6695 35.1703 17.1245C35.5333 17.4037 35.8447 17.7418 36.0913 18.124C36.2216 18.3178 36.3407 18.5186 36.4532 18.7228C36.5546 18.9271 36.6742 19.1222 36.8107 19.3057C37.047 19.5968 37.4583 19.8091 37.8343 19.6421C37.9181 19.5996 37.9905 19.5385 38.0459 19.4637C38.1013 19.3889 38.138 19.3024 38.1532 19.2111C38.1683 19.1199 38.1615 19.0265 38.1332 18.9383C38.1049 18.8501 38.056 18.7696 37.9903 18.7033C37.9251 18.6491 37.8471 18.6115 37.7635 18.594C37.6798 18.5766 37.593 18.5797 37.5108 18.6032C37.4287 18.6267 37.3538 18.6698 37.2929 18.7287C37.2319 18.7875 37.1868 18.8603 37.1616 18.9404C37.1229 19.1288 37.1221 19.3227 37.1592 19.5114C37.2191 20.0485 37.4012 20.5656 37.6921 21.0246C37.983 21.4836 38.3753 21.8728 38.8401 22.1636C38.9604 22.2372 39.0674 22.0486 38.9474 21.9751Z" fill="#CCCCCC"/>
<path d="M16.3009 4.16797C15.7544 4.13423 15.2238 3.97404 14.7526 3.70054C14.2814 3.42703 13.8831 3.048 13.5902 2.5945C13.5082 2.46595 13.401 2.32467 13.4578 2.16643C13.4776 2.10575 13.5178 2.05345 13.5719 2.01807C13.626 1.98269 13.6907 1.96633 13.7554 1.97166C13.8362 1.9887 13.909 2.0313 13.9626 2.09289C14.0162 2.15449 14.0476 2.23166 14.0521 2.3125C14.0565 2.39334 14.0336 2.47335 13.9871 2.54021C13.9405 2.60707 13.8727 2.65705 13.7943 2.68244C13.4152 2.84089 13.0328 2.59601 12.724 2.40058C12.0204 1.95526 11.2465 1.55254 10.394 1.50179C9.60521 1.45484 8.75935 1.75792 8.32061 2.42823C8.24385 2.5455 8.43444 2.65387 8.51082 2.53717C8.94594 1.87239 9.82557 1.63363 10.5904 1.73638C11.0462 1.80686 11.4863 1.95328 11.8916 2.1693C12.1019 2.27621 12.3057 2.39472 12.5055 2.5193C12.6956 2.64928 12.8971 2.76247 13.1076 2.85753C13.4587 2.99886 13.9235 2.98782 14.1687 2.66244C14.2207 2.58533 14.2536 2.49737 14.2647 2.40558C14.2758 2.3138 14.2649 2.22073 14.2328 2.13383C14.2006 2.04693 14.1482 1.9686 14.0796 1.9051C14.0111 1.84161 13.9284 1.79471 13.838 1.76816C13.7541 1.75194 13.6673 1.75639 13.5856 1.78111C13.5038 1.80583 13.4296 1.85004 13.3696 1.90978C13.3095 1.96952 13.2656 2.04292 13.2416 2.12341C13.2176 2.2039 13.2145 2.28896 13.2323 2.37096C13.2922 2.55393 13.3879 2.7237 13.5142 2.87076C13.8336 3.31115 14.2498 3.6757 14.7321 3.93756C15.2144 4.19942 15.7505 4.35192 16.3009 4.38382C16.4426 4.39069 16.4423 4.17482 16.3009 4.16797Z" fill="#CCCCCC"/>
<path d="M16.8008 11.0063H16.1445V13.1194H16.8008V11.0063Z" fill="#CCCCCC"/>
<path d="M6.18965 9.53191L6.64575 9.08496L5.14714 7.61641L4.69104 8.06336L6.18965 9.53191Z" fill="#B3B3B3"/>
<path d="M24.642 13.9725L25.0981 14.4194L26.5968 12.9509L26.1407 12.5039L24.642 13.9725Z" fill="#B3B3B3"/>
<path d="M6.00362 32.2371L6.45972 32.6841L7.95833 31.2155L7.50223 30.7686L6.00362 32.2371Z" fill="#FF6584"/>
</g>
<defs>
<clipPath id="clip0_30_86">
<rect width="39" height="62" fill="white"/>
</clipPath>
</defs>
</svg>

<svg xmlns="http://www.w3.org/2000/svg" width="39" height="62" fill="none"><g clip-path="url(#a)"><path fill="#34E9A4" d="M19.022 32.674c3.089 0 5.593-2.454 5.593-5.481 0-3.027-2.504-5.482-5.593-5.482-3.09 0-5.594 2.455-5.594 5.482s2.504 5.481 5.594 5.481ZM5.417 40.53a.728.728 0 0 1-.292-.248.708.708 0 0 1-.122-.36l-.082-1.51a.709.709 0 0 1 .187-.517.738.738 0 0 1 .505-.236l12.84-.665a.742.742 0 0 1 .527.183.712.712 0 0 1 .241.495l.082 1.51a.709.709 0 0 1-.187.517.738.738 0 0 1-.505.236L5.77 40.6a.74.74 0 0 1-.354-.07Z"/><path fill="#2F2E41" d="M14.268 40.56a.728.728 0 0 1-.304-.267.708.708 0 0 1-.11-.385l-.016-2.842a.704.704 0 0 1 .219-.506.731.731 0 0 1 .519-.206l5.857.507c.155 0 .351.236.508.425.05.06.092.11.123.141a.707.707 0 0 1 .21.509l-.012 1.512a.71.71 0 0 1-.22.505.74.74 0 0 1-.518.206l-5.94.472a.749.749 0 0 1-.316-.07Z"/><path fill="#34E9A4" d="M17.931 62H16.39a.74.74 0 0 1-.518-.21.71.71 0 0 1-.214-.507V48.479a.71.71 0 0 1 .214-.507.74.74 0 0 1 .518-.21h1.542a.74.74 0 0 1 .517.21.71.71 0 0 1 .215.507v12.804a.71.71 0 0 1-.215.507.74.74 0 0 1-.517.21ZM22 62h-1.542a.74.74 0 0 1-.517-.21.71.71 0 0 1-.215-.507V48.479a.71.71 0 0 1 .215-.507.74.74 0 0 1 .517-.21H22a.74.74 0 0 1 .517.21.71.71 0 0 1 .215.507v12.804a.71.71 0 0 1-.215.507A.74.74 0 0 1 22 62Z"/><path fill="#2F2E41" d="m19.766 29.224.006-.204c-.389-.011-.732-.035-.99-.22a.633.633 0 0 1-.248-.463.353.353 0 0 1 .12-.297c.171-.141.447-.095.647-.005l.173.078-.332-2.376-.207.028.283 2.02a.752.752 0 0 0-.698.099.562.562 0 0 0-.195.46.82.82 0 0 0 .335.622c.33.237.76.249 1.106.258ZM17.911 25.94h-1.126v.204h1.126v-.204ZM21.465 25.94h-1.126v.204h1.126v-.204ZM25.394 45.448l-5.162-10.09h.072c.18 0 .353-.07.48-.195a.66.66 0 0 0 .2-.47v-.205a.66.66 0 0 0-.2-.47.687.687 0 0 0-.48-.196h-2.3c-.18 0-.352.07-.48.195a.66.66 0 0 0-.198.471v.205c0 .163.062.32.172.44.111.122.264.2.429.218l-5.178 10.102a3.098 3.098 0 0 0 .137 3.069c.288.457.69.835 1.17 1.097.479.262 1.018.4 1.567.4h6.892c.55 0 1.09-.138 1.57-.4.48-.263.883-.64 1.171-1.099a3.104 3.104 0 0 0 .138-3.073Z"/><path fill="#34E9A4" d="m19.263 37.642 11.646-5.338a.746.746 0 0 1 .56-.024.727.727 0 0 1 .413.37l.653 1.369c.082.172.091.37.025.548a.724.724 0 0 1-.377.405L20.537 40.31a.746.746 0 0 1-.56.024.727.727 0 0 1-.413-.37l-.654-1.369a.7.7 0 0 1 .085-.743.724.724 0 0 1 .268-.21Z"/><path fill="#2F2E41" d="m18.864 37.609 5.127-2.995a.746.746 0 0 1 .559-.03.728.728 0 0 1 .417.365l1.293 2.546a.704.704 0 0 1-.116.79.732.732 0 0 1-.23.168l-5.477 2.073c-.143.068-.425-.059-.651-.16a2.388 2.388 0 0 0-.228-.095.723.723 0 0 1-.363-.345l-.67-1.362a.706.706 0 0 1 .339-.955Z"/><path fill="#3F3D56" d="M14.604 24.342a.286.286 0 0 1-.2-.082.275.275 0 0 1-.075-.26l1.462-6.31a.277.277 0 0 1 .192-.204.29.29 0 0 1 .277.06l4.847 4.399a.278.278 0 0 1 .084.265.276.276 0 0 1-.192.205l-6.31 1.914a.294.294 0 0 1-.085.013Z"/><path fill="#fff" d="m18.568 19.729-3.045-.594.048-.207 2.692.524.305.277ZM20.965 21.905l-5.82-1.135.047-.209 5.468 1.066.305.278ZM18.883 22.99l-.437.132-3.68-.718.048-.208 4.069.794Z"/><path fill="#34E9A4" d="M33.077 24.438a.91.91 0 0 0 .918-.9.91.91 0 0 0-.918-.9.91.91 0 0 0-.92.9c0 .497.412.9.92.9Z"/><path fill="#FF6584" d="M21.264 1.286a.65.65 0 0 0 .656-.643.65.65 0 0 0-.657-.643.65.65 0 0 0-.656.643.65.65 0 0 0 .657.643ZM6.957 21.223a.65.65 0 0 0 .656-.643.65.65 0 0 0-.656-.643.65.65 0 0 0-.657.643.65.65 0 0 0 .657.643Z"/><path fill="#34E9A4" d="M29.927 19.036a.65.65 0 0 0 .656-.643.65.65 0 0 0-.656-.643.65.65 0 0 0-.657.643.65.65 0 0 0 .657.643ZM9.975 27.783a.65.65 0 0 0 .657-.643.65.65 0 0 0-.657-.643.65.65 0 0 0-.656.643.65.65 0 0 0 .656.643Z"/><path fill="#E6E6E6" d="M30.714 29.584a.65.65 0 0 0 .656-.643.65.65 0 0 0-.656-.644.65.65 0 0 0-.656.643.65.65 0 0 0 .656.644Z"/><path fill="#CCC" d="M24.939 6.689a.65.65 0 0 0 .656-.644.65.65 0 0 0-.656-.643.65.65 0 0 0-.657.643.65.65 0 0 0 .657.644ZM.133 13.76a4.421 4.421 0 0 1 1.947.588c.593.343 1.093.82 1.462 1.39.103.162.238.34.166.538a.355.355 0 0 1-.143.187.367.367 0 0 1-.231.058.475.475 0 0 1-.26-.152.459.459 0 0 1 .211-.741c.477-.2.958.108 1.346.354.884.56 1.857 1.066 2.93 1.13.991.06 2.055-.322 2.606-1.165.097-.147-.143-.283-.239-.137-.547.836-1.653 1.136-2.615 1.007a5.154 5.154 0 0 1-1.636-.544c-.264-.135-.52-.284-.772-.44a4.943 4.943 0 0 0-.757-.425c-.441-.178-1.025-.164-1.334.245-.287.382-.065 1.017.416 1.124a.662.662 0 0 0 .59-.178.634.634 0 0 0 .172-.58c-.048-.224-.221-.444-.355-.628a4.604 4.604 0 0 0-1.531-1.341 4.705 4.705 0 0 0-1.973-.562c-.178-.008-.177.263 0 .272ZM38.947 21.975a3.426 3.426 0 0 1-1.12-1.148 3.346 3.346 0 0 1-.464-1.52c-.008-.152-.031-.326.097-.438a.29.29 0 0 1 .357-.027.367.367 0 0 1 .09.439.383.383 0 0 1-.41.2c-.41-.043-.621-.44-.794-.758-.393-.724-.868-1.446-1.588-1.897-.665-.418-1.554-.557-2.27-.181-.126.065-.014.251.111.186.71-.373 1.598-.162 2.214.294.363.279.675.617.921.999.13.194.25.395.362.599.102.204.221.4.358.583.236.29.647.503 1.023.336a.602.602 0 0 0 .32-.43.581.581 0 0 0-.164-.509.522.522 0 0 0-.828.237c-.04.189-.04.383-.003.571.06.538.242 1.055.533 1.514.291.459.683.848 1.148 1.139.12.073.227-.115.107-.189ZM16.3 4.168a3.517 3.517 0 0 1-1.547-.467 3.435 3.435 0 0 1-1.163-1.107c-.082-.128-.189-.27-.132-.428.02-.06.06-.113.114-.148a.292.292 0 0 1 .183-.046.365.365 0 0 1 .039.71c-.379.159-.761-.086-1.07-.281-.704-.446-1.478-.848-2.33-.9-.789-.046-1.635.257-2.073.927-.077.118.113.226.19.11.435-.666 1.315-.904 2.08-.802.455.07.895.217 1.3.433.21.107.415.226.614.35.19.13.392.243.603.339.35.14.816.13 1.06-.196a.585.585 0 0 0-.33-.894.527.527 0 0 0-.468.142.504.504 0 0 0-.138.461c.06.183.156.353.282.5.32.44.736.805 1.218 1.067a3.743 3.743 0 0 0 1.569.446c.142.007.141-.21 0-.216ZM16.8 11.006h-.655v2.113h.656v-2.113Z"/><path fill="#B3B3B3" d="m6.19 9.532.456-.447-1.499-1.469-.456.447L6.19 9.532ZM24.642 13.973l.456.446 1.499-1.468-.456-.447-1.499 1.469Z"/><path fill="#FF6584" d="m6.004 32.237.456.447 1.498-1.468-.456-.447-1.498 1.468Z"/></g><defs><clipPath id="a"><path fill="#fff" d="M0 0h39v62H0z"/></clipPath></defs></svg>
